X: 42493
T: What Ails You?
R: jig
M: 6/8
K: Dmajor
|:A|d2 d def|e2 d c2 A|B2 B BAF|ABA ABc|
d2 d def|e2 d c2 A|B2 A GEF|DED D2:|
|:B|A2 G FEF|ABA A2 g|fed edB|ded dcB|
A2 G FEF|ABA A2 A|Bcd edc|ded d2:|

